dist/img/about/about-whoWe-card_bg.svg

<svg width="585" height="449" viewBox="0 0 585 449" fill="none" xmlns="http://www.w3.org/2000/svg">
<path d="M211.529 3.73934e-05L0 0V14.1977C21.4996 20.2317 39.8783 45.1071 46.3802 56.7906L240.57 448.556H257.042L309.924 267.537C276.403 203.204 208.408 68.1487 201.125 49.6917C193.843 31.2348 205.316 18.3386 211.529 13.3103V3.73934e-05Z" fill="#DAC5B1" fill-opacity="0.03"/>
<path d="M414.821 3.73934e-05H350.669V12.8666C364.887 21.7402 369.308 38.1562 369.741 45.255H379.711C389.767 27.5079 407.308 16.2682 414.821 12.8666V3.73934e-05Z" fill="#DAC5B1" fill-opacity="0.03"/>
<path d="M684 0.887352H505.848V14.1976C514.806 21.5922 532.722 37.2688 532.722 51.0227C532.722 62.7412 533.3 286.615 533.156 397.09C532.867 404.78 527.001 423.622 505.848 437.464V449H684V437.464C662.847 423.622 656.981 404.78 656.692 397.09C656.548 286.615 657.125 62.7412 657.125 51.0227C657.125 37.2688 675.042 21.5922 684 14.1976V0.887352Z" fill="#DAC5B1" fill-opacity="0.03"/>
</svg>

<svg width="585" height="449" viewBox="0 0 585 449" fill="none" xmlns="http://www.w3.org/2000/svg"><path d="M211.529 0H0v14.198c21.5 6.034 39.878 30.91 46.38 42.593l194.19 391.765h16.472l52.882-181.019C276.403 203.204 208.408 68.149 201.125 49.692c-7.282-18.457 4.191-31.353 10.404-36.382V0zm203.292 0h-64.152v12.867c14.218 8.873 18.639 25.29 19.072 32.388h9.97c10.056-17.747 27.597-28.987 35.11-32.388V0zM684 .887H505.848v13.31c8.958 7.395 26.874 23.072 26.874 36.826 0 11.718.578 235.592.434 346.067-.289 7.69-6.155 26.532-27.308 40.374V449H684v-11.536c-21.153-13.842-27.019-32.684-27.308-40.374-.144-110.475.433-334.349.433-346.067 0-13.754 17.917-29.43 26.875-36.825V.888z" fill="#DAC5B1" fill-opacity=".03"/></svg>
